X:21
T:Hanter Dro
C:Stony
M:3/4
L:1/16
K:C
c2Bc A2G2 A4|c2Bc d2de c2A2|\
c2Bc A2G2 A4|c2Bc d2dc B4:|
|:A2ed e2f2 dfe2|d2ed c2A2 dcB2|\
A2ed e2f2 dfe2|d2cd e2ed c2B2:|
